X: 1
T:Out on the Ocean
R:double jig
M:6/8
L:1/8
K:G
D|G2B {c}BAG|BdB ABA|GED G2A|{c}BdB AGE|!
D2B {c}BAG|BdB ABA|GED G2A|1 BGG G2:|2 BGG GB||!
d|e3 {f}edB|efe edB|ded dBA|d2d {e}dBA|!
G2A B2d|ege dBA|GED G2A|BGG GBd|!
e3 {f}edB|efe edB|ded def|gfe dBA|!
G2A B2d|e2e {e}dBA|GED G2A|BGG G2|!
